X: 5868
T: Calluna
R: strathspey
M: 4/4
K: Dmajor
F>G A<f e>d B<d|B<G d>B A2 A2|B<G d>B A<F d>F|E<e e>d c2 (3cBA|
F>G A<f e>d B<d|B<G d>B A2 A2|B<g (3fed A>a f>d|(3cBA f>e d2 d2||
B<G B<d e>d c<B|A>F A<d f2- f>d|c<A c<e f>e d>c|(3dcB c>^A B2 =A2|
B<G B<d e>d c<B|A>F A<d g2 f>g|a>g (3fed B>g (3fed|(3cBA f>e d2 d2||

